svg/color/cscoon.svg

<svg width="40" height="40" viewBox="0 0 40 40" fill="none" xmlns="http://www.w3.org/2000/svg">
<g clip-path="url(#clip0_819_3673)">
<path d="M20 0C31.0457 0 40 8.9543 40 20C40 31.0457 31.0457 40 20 40C8.95431 40 7.90517e-06 31.0457 0 20C6.58765e-07 8.95431 8.95431 1.97595e-06 20 0Z" fill="#D1ECF7"/>
<path d="M26 6C30.4183 6 34 9.58172 34 14V26C34 30.4183 30.4183 34 26 34H14C9.58172 34 6 30.4183 6 26V14C6 9.58172 9.58172 6 14 6H26Z" fill="#1BA0D7"/>
<path d="M23.6092 25.1425V24.2166L23.5908 24.225C23.3825 24.3258 23.1558 24.3833 22.9233 24.3941C22.6828 24.4125 22.444 24.3422 22.2517 24.1966C22.1145 24.0908 22.0124 23.9462 21.9583 23.7816C21.9 23.6018 21.8933 23.4092 21.9392 23.2258C21.9825 23.0383 22.0875 22.8708 22.2367 22.7516C22.37 22.64 22.5325 22.57 22.705 22.55C23.0096 22.5159 23.3174 22.5733 23.5892 22.715L23.6092 22.7258V21.795L23.5667 21.7833C23.2947 21.6965 23.0093 21.6592 22.7242 21.6733C22.4644 21.6798 22.2086 21.7382 21.9717 21.845C21.7325 21.955 21.5217 22.1175 21.3558 22.3208C21.1028 22.6404 20.9624 23.0346 20.9564 23.4422C20.9503 23.8498 21.079 24.248 21.3225 24.575C21.5683 24.89 21.9133 25.1125 22.3017 25.205C22.7108 25.305 23.14 25.29 23.5408 25.1616L23.6092 25.1425ZM14.4467 25.1425V24.2166L14.4283 24.225C14.22 24.3258 13.9933 24.3833 13.7608 24.3941C13.5203 24.4127 13.2814 24.3424 13.0892 24.1966C12.952 24.091 12.8501 23.9463 12.7967 23.7816C12.7377 23.602 12.7307 23.4092 12.7767 23.2258C12.82 23.0383 12.9242 22.8708 13.0742 22.7516C13.2075 22.64 13.37 22.57 13.5425 22.55C13.8471 22.5159 14.1549 22.5733 14.4267 22.715L14.4467 22.7258V21.795L14.4042 21.7833C14.1322 21.6965 13.8468 21.6592 13.5617 21.6733C13.3019 21.6799 13.0461 21.7383 12.8092 21.845C12.5702 21.9547 12.3593 22.1175 12.1925 22.3208C11.9398 22.6405 11.7994 23.0346 11.7933 23.4421C11.7871 23.8496 11.9154 24.2477 12.1583 24.575C12.4039 24.8902 12.7496 25.1124 13.1383 25.205C13.5475 25.305 13.9758 25.29 14.3775 25.1616L14.4467 25.1425ZM17.7167 24.3741L17.7133 25.1716L17.7717 25.1816C17.955 25.2158 18.1392 25.2391 18.325 25.2525C18.4875 25.2683 18.6508 25.2708 18.8142 25.2625C18.97 25.2508 19.1242 25.2216 19.2733 25.1758C19.4483 25.1258 19.6108 25.04 19.7492 24.9216C19.874 24.8146 19.9696 24.6775 20.0267 24.5233C20.126 24.2655 20.1239 23.9796 20.0208 23.7233C19.9671 23.5899 19.8819 23.4716 19.7725 23.3783C19.6665 23.2835 19.5423 23.2112 19.4075 23.1658L18.8058 22.9425C18.734 22.9118 18.6757 22.8561 18.6417 22.7858C18.6285 22.7569 18.6223 22.7254 18.6235 22.6938C18.6246 22.6621 18.6331 22.6311 18.6483 22.6033C18.6792 22.5527 18.7237 22.5117 18.7767 22.485C18.8441 22.4525 18.9165 22.4317 18.9908 22.4233C19.1183 22.405 19.2475 22.4058 19.3742 22.4275C19.5242 22.4441 19.6725 22.47 19.8183 22.5075L19.85 22.5141V21.7783L19.7925 21.7658C19.6434 21.7301 19.4923 21.7031 19.34 21.685C19.1426 21.6591 18.9427 21.6583 18.745 21.6825C18.495 21.705 18.2575 21.8016 18.0608 21.9575C17.9275 22.0625 17.8267 22.2016 17.7683 22.3608C17.6817 22.6025 17.6808 22.8675 17.7683 23.11C17.8133 23.2308 17.885 23.3383 17.9783 23.4275C18.0592 23.505 18.1508 23.5716 18.2508 23.6241C18.3817 23.6941 18.5208 23.7483 18.665 23.7866C18.7125 23.8008 18.76 23.8158 18.8067 23.8316L18.8775 23.8575L18.8975 23.8658C18.9675 23.8908 19.0325 23.9308 19.0858 23.9825C19.1233 24.0175 19.1525 24.0608 19.17 24.1083C19.1815 24.1522 19.1818 24.1984 19.1708 24.2425C19.1483 24.3136 19.0986 24.3729 19.0325 24.4075C18.9607 24.4441 18.8832 24.4684 18.8033 24.4791C18.6857 24.4975 18.5664 24.5033 18.4475 24.4966C18.2918 24.4844 18.1368 24.4639 17.9833 24.435C17.9033 24.4176 17.8236 24.399 17.7442 24.3791L17.7167 24.3741ZM15.6542 25.2033H16.5292V21.7308H15.6542V25.2033ZM25.7892 22.7566C25.8821 22.6809 25.9891 22.6243 26.1039 22.5899C26.2188 22.5555 26.3393 22.5442 26.4585 22.5564C26.5778 22.5686 26.6935 22.6042 26.799 22.6612C26.9044 22.7181 26.9977 22.7953 27.0733 22.8883C27.1492 22.9811 27.206 23.0881 27.2405 23.2029C27.275 23.3177 27.2865 23.4382 27.2743 23.5575C27.2622 23.6768 27.2266 23.7925 27.1697 23.898C27.1127 24.0036 27.0355 24.0968 26.9425 24.1725L26.9283 24.1841C26.7385 24.3297 26.4992 24.3949 26.2618 24.3659C26.0244 24.3369 25.8079 24.216 25.6587 24.029C25.5095 23.8421 25.4396 23.6041 25.464 23.3662C25.4884 23.1283 25.6052 22.9094 25.7892 22.7566ZM24.5183 23.4683C24.5226 23.7393 24.5871 24.006 24.7071 24.2491C24.8272 24.4921 24.9998 24.7054 25.2125 24.8735C25.4251 25.0416 25.6725 25.1602 25.9367 25.2209C26.2009 25.2815 26.4753 25.2826 26.74 25.2241C27.0952 25.1569 27.4216 24.9833 27.6758 24.7263C27.9301 24.4693 28.1002 24.1411 28.1635 23.7852C28.2269 23.4293 28.1805 23.0625 28.0306 22.7335C27.8807 22.4046 27.6343 22.129 27.3242 21.9433C27.0484 21.7728 26.7325 21.6783 26.4084 21.6692C26.0844 21.6602 25.7637 21.7369 25.4788 21.8918C25.194 22.0466 24.9551 22.2739 24.7864 22.5508C24.6178 22.8277 24.5253 23.1442 24.5183 23.4683ZM29.1342 18.94C29.1391 19.0515 29.1868 19.1568 29.2675 19.234C29.3481 19.3112 29.4554 19.3543 29.5671 19.3543C29.6787 19.3543 29.7861 19.3112 29.8667 19.234C29.9474 19.1568 29.9951 19.0515 30 18.94V17.9775C29.9951 17.8659 29.9474 17.7606 29.8667 17.6834C29.7861 17.6062 29.6787 17.5631 29.5671 17.5631C29.4554 17.5631 29.3481 17.6062 29.2675 17.6834C29.1868 17.7606 29.1391 17.8659 29.1342 17.9775V18.94ZM26.7642 18.94C26.7725 19.0493 26.8218 19.1515 26.9022 19.226C26.9826 19.3006 27.0883 19.342 27.1979 19.342C27.3076 19.342 27.4132 19.3006 27.4936 19.226C27.5741 19.1515 27.6234 19.0493 27.6317 18.94V16.7825C27.6248 16.6722 27.5762 16.5687 27.4957 16.493C27.4152 16.4173 27.3088 16.3752 27.1983 16.3752C27.0878 16.3752 26.9815 16.4173 26.901 16.493C26.8205 16.5687 26.7718 16.6722 26.765 16.7825L26.7642 18.94ZM24.3592 19.8091C24.3675 19.9183 24.4167 20.0202 24.4969 20.0946C24.5772 20.169 24.6826 20.2104 24.7921 20.2104C24.9015 20.2104 25.0069 20.169 25.0872 20.0946C25.1675 20.0202 25.2167 19.9183 25.225 19.8091V15.1416C25.2201 15.0301 25.1724 14.9248 25.0917 14.8476C25.0111 14.7704 24.9037 14.7273 24.7921 14.7273C24.6804 14.7273 24.5731 14.7704 24.4925 14.8476C24.4118 14.9248 24.3641 15.0301 24.3592 15.1416V19.8091ZM21.9942 18.94C22.001 19.0502 22.0496 19.1538 22.1302 19.2294C22.2107 19.3051 22.317 19.3472 22.4275 19.3472C22.538 19.3472 22.6443 19.3051 22.7248 19.2294C22.8054 19.1538 22.854 19.0502 22.8608 18.94V16.7825C22.8559 16.6709 22.8082 16.5656 22.7275 16.4884C22.6469 16.4112 22.5396 16.3681 22.4279 16.3681C22.3163 16.3681 22.2089 16.4112 22.1283 16.4884C22.0476 16.5656 21.9999 16.6709 21.995 16.7825V18.94M19.5783 18.94C19.5889 19.0475 19.6391 19.1472 19.7191 19.2197C19.7991 19.2923 19.9032 19.3324 20.0112 19.3324C20.1193 19.3324 20.2234 19.2923 20.3034 19.2197C20.3834 19.1472 20.4336 19.0475 20.4442 18.94V17.9775C20.4393 17.8659 20.3915 17.7606 20.3109 17.6834C20.2302 17.6062 20.1229 17.5631 20.0112 17.5631C19.8996 17.5631 19.7923 17.6062 19.7116 17.6834C19.631 17.7606 19.5832 17.8659 19.5783 17.9775V18.94ZM17.1867 18.94C17.1916 19.0515 17.2393 19.1568 17.32 19.234C17.4006 19.3112 17.5079 19.3543 17.6196 19.3543C17.7312 19.3543 17.8386 19.3112 17.9192 19.234C17.9999 19.1568 18.0476 19.0515 18.0525 18.94V16.7825C18.0476 16.6709 17.9999 16.5656 17.9192 16.4884C17.8386 16.4112 17.7312 16.3681 17.6196 16.3681C17.5079 16.3681 17.4006 16.4112 17.32 16.4884C17.2393 16.5656 17.1916 16.6709 17.1867 16.7825V18.94ZM14.7808 19.8091C14.7857 19.9207 14.8335 20.026 14.9141 20.1032C14.9948 20.1804 15.1021 20.2235 15.2137 20.2235C15.3254 20.2235 15.4327 20.1804 15.5134 20.1032C15.594 20.026 15.6418 19.9207 15.6467 19.8091V15.1416C15.6418 15.0301 15.594 14.9248 15.5134 14.8476C15.4327 14.7704 15.3254 14.7273 15.2137 14.7273C15.1021 14.7273 14.9948 14.7704 14.9141 14.8476C14.8335 14.9248 14.7857 15.0301 14.7808 15.1416V19.8091ZM12.3967 18.94C12.4062 19.0483 12.456 19.1492 12.5362 19.2227C12.6164 19.2962 12.7212 19.3369 12.83 19.3369C12.9388 19.3369 13.0436 19.2962 13.1238 19.2227C13.204 19.1492 13.2538 19.0483 13.2633 18.94V16.7825C13.2584 16.6709 13.2107 16.5656 13.13 16.4884C13.0494 16.4112 12.9421 16.3681 12.8304 16.3681C12.7188 16.3681 12.6114 16.4112 12.5308 16.4884C12.4501 16.5656 12.4024 16.6709 12.3975 16.7825V18.94M10 18.94C10.0083 19.0491 10.0575 19.1511 10.1378 19.2255C10.2181 19.2999 10.3235 19.3412 10.4329 19.3412C10.5424 19.3412 10.6478 19.2999 10.728 19.2255C10.8083 19.1511 10.8575 19.0491 10.8658 18.94V17.9775C10.8609 17.8659 10.8132 17.7606 10.7325 17.6834C10.6519 17.6062 10.5446 17.5631 10.4329 17.5631C10.3213 17.5631 10.2139 17.6062 10.1333 17.6834C10.0526 17.7606 10.0049 17.8659 10 17.9775V18.94Z" fill="white"/>
</g>
<defs>
<clipPath id="clip0_819_3673">
<rect width="40" height="40" fill="white"/>
</clipPath>
</defs>
</svg>

<svg xmlns="http://www.w3.org/2000/svg" width="40" height="40" fill="none" viewBox="0 0 40 40"><g clip-path="url(#cscoon_svg-a)"><path fill="#D1ECF7" d="M20 0c11.046 0 20 8.954 20 20s-8.954 20-20 20S0 31.046 0 20 8.954 0 20 0"/><path fill="#1BA0D7" d="M26 6a8 8 0 0 1 8 8v12a8 8 0 0 1-8 8H14a8 8 0 0 1-8-8V14a8 8 0 0 1 8-8z"/><path fill="#fff" d="M23.61 25.143v-.926l-.02.008a1.7 1.7 0 0 1-.667.17 1 1 0 0 1-.671-.198.87.87 0 0 1-.294-.415 1 1 0 0 1-.019-.556.85.85 0 0 1 .298-.474.9.9 0 0 1 .468-.202c.305-.034.612.023.884.165l.02.01v-.93l-.042-.012a2.4 2.4 0 0 0-.843-.11 2 2 0 0 0-.752.172c-.24.11-.45.273-.616.476a1.85 1.85 0 0 0-.034 2.254c.246.315.591.538.98.63.409.1.838.085 1.239-.043zm-9.163 0v-.926l-.019.008c-.208.1-.435.158-.667.17a1 1 0 0 1-.672-.198.86.86 0 0 1-.292-.415 1 1 0 0 1-.02-.556.85.85 0 0 1 .297-.474.9.9 0 0 1 .469-.202 1.54 1.54 0 0 1 .884.165l.02.01v-.93l-.043-.012a2.4 2.4 0 0 0-.842-.11c-.26.007-.516.065-.753.172a1.7 1.7 0 0 0-.616.476 1.85 1.85 0 0 0-.035 2.254c.246.315.592.537.98.63.41.1.838.085 1.24-.043zm3.27-.769-.004.798.059.01q.274.05.553.07.244.024.49.01a2 2 0 0 0 .458-.086c.175-.05.338-.136.476-.254a1 1 0 0 0 .278-.399 1.1 1.1 0 0 0-.006-.8.9.9 0 0 0-.248-.345 1.1 1.1 0 0 0-.366-.212l-.601-.224a.32.32 0 0 1-.164-.156.2.2 0 0 1 .006-.183.3.3 0 0 1 .129-.118.7.7 0 0 1 .214-.062q.191-.027.383.005.226.024.444.08l.032.006v-.736l-.058-.012a4 4 0 0 0-.452-.081 2.4 2.4 0 0 0-.595-.002c-.25.022-.488.119-.684.274a.9.9 0 0 0-.293.404 1.1 1.1 0 0 0 0 .749q.069.182.21.317.122.118.273.197.196.105.414.163.071.021.142.045l.07.026.02.008c.07.025.136.065.189.117a.3.3 0 0 1 .084.125.3.3 0 0 1 0 .134.28.28 0 0 1-.138.165.7.7 0 0 1-.229.072 1.7 1.7 0 0 1-.355.018 4 4 0 0 1-.465-.062l-.239-.056zm-2.063.83h.875V21.73h-.875zm10.135-2.447a.913.913 0 0 1 1.153 1.415l-.014.012a.913.913 0 0 1-1.139-1.427m-1.27.711a1.83 1.83 0 0 0 2.221 1.756 1.782 1.782 0 0 0 .584-3.28 1.84 1.84 0 0 0-2.806 1.524m4.615-4.528a.433.433 0 0 0 .866 0v-.963a.433.433 0 0 0-.866 0zm-2.37 0a.435.435 0 0 0 .868 0v-2.158a.435.435 0 0 0-.867 0zm-2.405.87a.434.434 0 0 0 .866 0v-4.668a.433.433 0 0 0-.866 0zm-2.365-.87a.433.433 0 0 0 .867 0v-2.158a.433.433 0 0 0-.866 0zm-2.417 0a.435.435 0 0 0 .866 0v-.963a.434.434 0 0 0-.866 0zm-2.391 0a.433.433 0 0 0 .865 0v-2.158a.433.433 0 0 0-.865 0zm-2.406.87a.434.434 0 0 0 .866 0v-4.668a.434.434 0 0 0-.866 0zm-2.384-.87a.435.435 0 0 0 .866 0v-2.158a.433.433 0 0 0-.865 0zm-2.398 0a.434.434 0 0 0 .866 0v-.963a.433.433 0 0 0-.866 0z"/></g><defs><clipPath id="cscoon_svg-a"><path fill="#fff" d="M0 0h40v40H0z"/></clipPath></defs></svg>
